groups/alkoxy/propoxy.svg

<?xml version='1.0' encoding='iso-8859-1'?>
<svg version='1.1' baseProfile='full'
              xmlns='http://www.w3.org/2000/svg'
                      xmlns:rdkit='http://www.rdkit.org/xml'
                      xmlns:xlink='http://www.w3.org/1999/xlink'
                  xml:space='preserve'
width='256px' height='256px' viewBox='0 0 256 256'>
<!-- END OF HEADER -->
<rect style='opacity:1.0;fill:#FFFFFF;stroke:none' width='256.0' height='256.0' x='0.0' y='0.0'> </rect>
<path class='bond-0 atom-0 atom-1' d='M 25.4,131.3 L 58.5,112.2' style='fill:none;fill-rule:evenodd;stroke:#000000;stroke-width:2.0px;stroke-linecap:butt;stroke-linejoin:miter;stroke-opacity:1' />
<path class='bond-1 atom-1 atom-2' d='M 80.1,112.2 L 113.1,131.3' style='fill:none;fill-rule:evenodd;stroke:#000000;stroke-width:2.0px;stroke-linecap:butt;stroke-linejoin:miter;stroke-opacity:1' />
<path class='bond-2 atom-2 atom-3' d='M 113.1,131.3 L 156.9,106.0' style='fill:none;fill-rule:evenodd;stroke:#000000;stroke-width:2.0px;stroke-linecap:butt;stroke-linejoin:miter;stroke-opacity:1' />
<path class='bond-3 atom-3 atom-4' d='M 156.9,106.0 L 190.0,125.2' style='fill:none;fill-rule:evenodd;stroke:#000000;stroke-width:2.0px;stroke-linecap:butt;stroke-linejoin:miter;stroke-opacity:1' />
<path d='M 111.4,130.4 L 113.1,131.3 L 115.3,130.1' style='fill:none;stroke:#000000;stroke-width:2.0px;stroke-linecap:butt;stroke-linejoin:miter;stroke-miterlimit:10;stroke-opacity:1;' />
<path d='M 154.7,107.3 L 156.9,106.0 L 158.6,107.0' style='fill:none;stroke:#000000;stroke-width:2.0px;stroke-linecap:butt;stroke-linejoin:miter;stroke-miterlimit:10;stroke-opacity:1;' />
<path class='atom-1' d='M38.0662,153.177 C39.7106,152.23 38.4473,150.037 36.8029,150.985 C35.1585,151.932 33.8952,149.74 35.5396,148.792 C37.184,147.845 35.9207,145.652 34.2763,146.6 C32.6319,147.547 31.3686,145.354 33.013,144.407 C34.6574,143.46 33.3941,141.267 31.7497,142.214 C30.1053,143.162 28.842,140.969 30.4864,140.022 C32.1308,139.074 30.8674,136.882 29.223,137.829 C27.5786,138.777 26.3153,136.584 27.9597,135.637 C29.6041,134.689 28.3408,132.497 26.6964,133.444 C25.052,134.392 23.7887,132.199 25.4331,131.252 C27.0775,130.304 25.8142,128.112 24.1698,129.059 C22.5254,130.006 21.2621,127.814 22.9065,126.866 C24.5509,125.919 23.2876,123.726 21.6432,124.674 C19.9988,125.621 18.7355,123.429 20.3799,122.481 C22.0243,121.534 20.761,119.341 19.1166,120.289 C17.4722,121.236 16.2088,119.044 17.8532,118.096 C19.4976,117.149 18.2343,114.956 16.5899,115.904 C14.9455,116.851 13.6822,114.658 15.3266,113.711 C16.971,112.764 15.7077,110.571 14.0633,111.518 C12.4189,112.466 11.1556,110.273 12.8,109.326' style='fill:none;stroke:#7F7F7F;stroke-width:2.0px;stroke-linecap:butt;stroke-linejoin:miter;stroke-opacity:1' />
<text x='60.2' y='121.2' class='atom-1' style='font-size:30px;font-style:normal;font-weight:normal;fill-opacity:1;stroke:none;font-family:sans-serif;text-anchor:start;fill:#000000' >O</text>
<text x='191.6' y='146.6' class='atom-4' style='font-size:30px;font-style:normal;font-weight:normal;fill-opacity:1;stroke:none;font-family:sans-serif;text-anchor:start;fill:#000000' >C</text>
<text x='212.6' y='146.6' class='atom-4' style='font-size:30px;font-style:normal;font-weight:normal;fill-opacity:1;stroke:none;font-family:sans-serif;text-anchor:start;fill:#000000' >H</text>
<text x='233.5' y='158.7' class='atom-4' style='font-size:20px;font-style:normal;font-weight:normal;fill-opacity:1;stroke:none;font-family:sans-serif;text-anchor:start;fill:#000000' >3</text>
</svg>

<svg height="256" viewBox="0 0 256 256" width="256" xmlns="http://www.w3.org/2000/svg"><path d="m0 0h256v256h-256z" fill="#fff"/><g fill="none" stroke-width="2"><path d="m25.4 131.3 33.1-19.1" stroke="#000"/><path d="m80.1 112.2 33 19.1" stroke="#000"/><path d="m113.1 131.3 43.8-25.3" stroke="#000"/><path d="m156.9 106 33.1 19.2" stroke="#000"/><path d="m111.4 130.4 1.7.9 2.2-1.2" stroke="#000" stroke-miterlimit="10"/><path d="m154.7 107.3 2.2-1.3 1.7 1" stroke="#000" stroke-miterlimit="10"/><path d="m38.066 153.177c1.645-.947.381-3.14-1.263-2.192-1.644.947-2.908-1.245-1.263-2.193 1.644-.947.381-3.14-1.264-2.192-1.644.947-2.907-1.246-1.263-2.193s.381-3.14-1.263-2.193c-1.645.948-2.908-1.245-1.264-2.192 1.645-.948.381-3.14-1.263-2.193-1.644.948-2.908-1.245-1.263-2.192 1.644-.948.381-3.14-1.264-2.193-1.644.948-2.907-1.245-1.263-2.192 1.645-.948.381-3.14-1.263-2.193-1.645.947-2.908-1.245-1.263-2.193 1.644-.947.381-3.14-1.264-2.192-1.644.947-2.907-1.245-1.263-2.193 1.644-.947.381-3.14-1.263-2.192-1.645.947-2.908-1.245-1.264-2.193 1.645-.947.381-3.14-1.263-2.192-1.644.947-2.908-1.246-1.263-2.193 1.644-.947.381-3.14-1.264-2.193-1.644.948-2.907-1.245-1.263-2.192" stroke="#7f7f7f"/></g><text font-family="sans-serif" font-size="30" x="60.2" y="121.2">O</text><text font-family="sans-serif" font-size="30" x="191.6" y="146.6">C</text><text font-family="sans-serif" font-size="30" x="212.6" y="146.6">H</text><text font-family="sans-serif" font-size="20" x="233.5" y="158.7">3</text></svg>
